images/rockHand.svg

<svg width="1920" height="1080" viewBox="0 0 1920 1080" fill="none" xmlns="http://www.w3.org/2000/svg">
<path d="M966.398 304.999C972.698 302.499 979.398 301.199 986.398 301.199C988.198 301.199 989.998 301.299 991.798 301.499" fill="url(#paint0_linear)"/>
<path d="M1109 134.199C1079.7 129.599 1052.2 149.699 1047.6 178.999C1047.6 178.999 1035.1 259.399 1025.9 318.799C1025.3 318.199 1024.8 317.499 1024.2 316.899C1015.3 307.999 1003.9 302.699 991.598 301.399C989.798 301.199 987.998 301.099 986.198 301.099C979.198 301.099 972.498 302.399 966.198 304.899C959.498 307.599 953.398 311.599 948.198 316.799C947.098 317.799 946.198 318.999 945.198 320.099C944.698 319.499 944.098 318.899 943.598 318.299C933.498 308.199 919.998 302.599 905.598 302.599C891.198 302.599 877.798 308.199 867.598 318.299L856.398 216.999C852.898 187.499 826.198 166.399 796.798 169.799C767.398 173.199 746.198 199.999 749.698 229.399L788.798 573.099C788.998 574.599 789.298 576.099 789.598 577.599C793.098 620.099 808.698 660.699 833.598 692.499L835.298 987.999L835.398 999.899H1101.6L1100.6 987.099L1077.6 684.999C1080.4 681.499 1085.3 675.799 1089.2 671.499C1101 657.999 1108.6 649.099 1111.7 642.699C1141.6 590.999 1143.2 538.399 1116.1 494.499C1114.3 488.999 1112.2 483.699 1109.9 478.399C1114.9 446.499 1153.8 195.599 1153.8 195.599C1158.4 166.299 1138.3 138.799 1109 134.199ZM1130.2 191.899L1085.7 477.999L1085.2 481.499L1086.7 484.699C1089.4 490.799 1091.9 496.999 1093.9 503.399L1094.4 504.799L1095.2 505.999C1118.1 542.399 1116.6 586.699 1091 630.899L1090.6 631.599L1090.3 632.299C1088.6 635.999 1077.8 648.299 1071.4 655.699C1063 665.299 1057.7 671.399 1055.3 675.499L1053.4 678.699L1053.7 682.399L1076.1 975.899H859.198L857.498 688.099V683.899L854.798 680.599C831.298 651.899 816.598 614.499 813.498 575.099L813.398 574.299L813.198 573.499C812.898 572.399 812.798 571.299 812.598 570.299L773.498 226.599C771.598 210.199 783.298 195.399 799.698 193.499C815.998 191.599 830.898 203.299 832.798 219.699C832.798 219.599 850.798 381.899 851.998 393.299V506.899C851.998 536.499 876.098 560.599 905.698 560.599C922.098 560.599 936.798 553.199 946.698 541.499C956.498 552.299 970.598 559.099 986.298 559.099C1015.9 559.099 1040 534.999 1040 505.399V383.999L1071.2 182.599C1073.7 166.399 1089 155.199 1105.3 157.699C1121.6 160.299 1132.8 175.599 1130.2 191.899ZM875.898 357.899C875.898 349.899 878.998 342.399 884.598 336.799C890.198 331.199 897.698 328.099 905.698 328.099C917.798 328.099 928.698 335.599 933.298 346.599C932.898 349.299 932.598 352.099 932.598 354.899V505.599C932.598 509.499 932.998 513.299 933.898 516.999C929.798 528.599 918.798 536.899 905.798 536.899C889.298 536.899 875.998 523.499 875.998 507.099V357.899H875.898ZM1007.4 335.299C1013 340.899 1016.1 348.399 1016.1 356.399V505.599C1016.1 522.099 1002.7 535.399 986.298 535.399C973.698 535.399 962.898 527.499 958.598 516.499C959.098 513.399 959.498 510.299 959.498 507.099V356.399C959.498 352.799 959.198 349.299 958.498 345.899C962.798 334.399 973.798 326.499 986.398 326.499C994.298 326.499 1001.8 329.599 1007.4 335.299Z" fill="white"/>
<path d="M958.398 345.899C959.098 349.299 959.398 352.799 959.398 356.399V507.099C959.398 510.299 959.098 513.499 958.498 516.499C962.898 527.599 973.598 535.399 986.198 535.399C1002.7 535.399 1016 521.999 1016 505.599V356.399C1016 348.399 1012.9 340.899 1007.3 335.299C1001.7 329.699 994.198 326.599 986.198 326.599C973.798 326.499 962.798 334.299 958.398 345.899Z" fill="black"/>
<path d="M905.701 536.902C918.701 536.902 929.701 528.602 933.801 517.002C933.001 513.302 932.501 509.502 932.501 505.602V354.902C932.501 352.102 932.801 349.302 933.201 346.602C928.701 335.602 917.701 328.102 905.601 328.102C897.601 328.102 890.101 331.202 884.501 336.802C878.901 342.402 875.801 349.902 875.801 357.902V507.102C875.901 523.502 889.301 536.902 905.701 536.902Z" fill="black"/>
<path d="M1105.3 157.801C1089 155.301 1073.7 166.401 1071.2 182.701L1040 384.001V505.601C1040 535.201 1015.9 559.301 986.302 559.301C970.602 559.301 956.502 552.501 946.702 541.701C936.802 553.301 922.102 560.801 905.702 560.801C876.102 560.801 852.002 536.701 852.002 507.101V393.501C850.702 382.101 832.802 219.801 832.802 219.901C830.902 203.601 816.002 191.801 799.702 193.701C783.402 195.601 771.602 210.501 773.502 226.801L812.602 570.501C812.702 571.501 812.902 572.601 813.202 573.701L813.402 574.501L813.502 575.301C816.702 614.701 831.402 652.201 854.802 680.801L857.502 684.101V688.301L859.202 976.101H1075.9L1053.5 682.601L1053.2 678.901L1055.1 675.701C1057.5 671.501 1062.8 665.501 1071.2 655.901C1077.7 648.501 1088.5 636.201 1090.1 632.501L1090.4 631.801L1090.8 631.101C1116.4 586.901 1118 542.601 1095 506.201L1094.2 505.001L1093.7 503.601C1091.6 497.301 1089.2 491.001 1086.5 484.901L1085 481.701L1085.5 478.201L1130 192.101C1132.8 175.601 1121.6 160.301 1105.3 157.801Z" fill="black"/>
<path d="M974.401 405.699L974.201 405.499L974.001 405.299C960.201 392.899 938.801 394.099 926.401 407.899C914.001 421.699 915.201 443.099 929.001 455.499L1029 544.699L1080.5 493.299L974.401 405.699Z" fill="black"/>
<path d="M926.399 408.1C938.799 394.3 960.099 393.1 973.999 405.5L974.199 405.7L974.399 405.9L1080.6 493.6L1098.6 508.5L1113.8 490.1L989.599 387.3L989.999 387.6C978.499 377.3 963.799 372.2 948.399 373C933.099 373.9 918.899 380.6 908.699 392.1C887.499 415.8 889.599 452.2 913.199 473.4C913.199 473.4 956.799 512.3 988.699 540.7C934.199 551.8 893.699 592 893.699 639.9H914.599C914.599 597.6 956.199 562.8 1009.2 558.9C1016.7 565.6 1021.6 569.9 1021.6 569.9L1037.5 552.1L1029.3 544.8L929.299 455.6C915.199 443.2 913.999 421.9 926.399 408.1Z" fill="white"/>
<defs>
<linearGradient id="paint0_linear" x1="966.362" y1="303.086" x2="991.755" y2="303.086" gradientUnits="userSpaceOnUse">
<stop stop-color="#F8AA82"/>
</linearGradient>
</defs>
</svg>

<?xml version="1.0" encoding="utf-8"?>
<!-- Generator: Adobe Illustrator 21.0.0, SVG Export Plug-In . SVG Version: 6.00 Build 0)  -->
<svg version="1.1" id="Layer_1" xmlns="http://www.w3.org/2000/svg" xmlns:xlink="http://www.w3.org/1999/xlink" x="0px" y="0px"
	 viewBox="0 0 1920 1080" style="enable-background:new 0 0 1920 1080;" xml:space="preserve">
<style type="text/css">
	.st0{fill:url(#SVGID_1_);}
	.st1{fill:#FFFFFF;}
	.st2{fill:#212121;}
</style>
<linearGradient id="SVGID_1_" gradientUnits="userSpaceOnUse" x1="966.3633" y1="303.0871" x2="991.7565" y2="303.0871">
	<stop  offset="0" style="stop-color:#F8AA82"/>
	<stop  offset="1" style="stop-color:#F17D2D"/>
</linearGradient>
<path class="st0" d="M966.4,305c6.3-2.5,13-3.8,20-3.8c1.8,0,3.6,0.1,5.4,0.3"/>
<path class="st1" d="M1109,134.2c-29.3-4.6-56.8,15.5-61.4,44.8c0,0-12.5,80.4-21.7,139.8c-0.6-0.6-1.1-1.3-1.7-1.9
	c-8.9-8.9-20.3-14.2-32.6-15.5c-1.8-0.2-3.6-0.3-5.4-0.3c-7,0-13.7,1.3-20,3.8c-6.7,2.7-12.8,6.7-18,11.9c-1.1,1-2,2.2-3,3.3
	c-0.5-0.6-1.1-1.2-1.6-1.8c-10.1-10.1-23.6-15.7-38-15.7s-27.8,5.6-38,15.7c0,0,0,0,0,0l-11.2-101.3c-3.5-29.5-30.2-50.6-59.6-47.2
	c-29.4,3.4-50.6,30.2-47.1,59.6c0,0,39.1,343.7,39.1,343.7c0.2,1.5,0.5,3,0.8,4.5c3.5,42.5,19.1,83.1,44,114.9l1.7,295.5l0.1,11.9
	h266.2l-1-12.8l-23-302.1c2.8-3.5,7.7-9.2,11.6-13.5c11.8-13.5,19.4-22.4,22.5-28.8c29.9-51.7,31.5-104.3,4.4-148.2
	c-1.8-5.5-3.9-10.8-6.2-16.1c5-31.9,43.9-282.8,43.9-282.8C1158.4,166.3,1138.3,138.8,1109,134.2z M1130.2,191.9
	c0,0-44.5,286.1-44.5,286.1l-0.5,3.5l1.5,3.2c2.7,6.1,5.2,12.3,7.2,18.7l0.5,1.4l0.8,1.2c22.9,36.4,21.4,80.7-4.2,124.9l-0.4,0.7
	l-0.3,0.7c-1.7,3.7-12.5,16-18.9,23.4c-8.4,9.6-13.7,15.7-16.1,19.8l-1.9,3.2l0.3,3.7l22.4,293.5H859.2l-1.7-287.8l0-4.2l-2.7-3.3
	c-23.5-28.7-38.2-66.1-41.3-105.5l-0.1-0.8l-0.2-0.8c-0.3-1.1-0.4-2.2-0.6-3.2c0,0-39.1-343.7-39.1-343.7
	c-1.9-16.4,9.8-31.2,26.2-33.1c16.3-1.9,31.2,9.8,33.1,26.2c0-0.1,18,162.2,19.2,173.6v113.6c0,29.6,24.1,53.7,53.7,53.7
	c16.4,0,31.1-7.4,41-19.1c9.8,10.8,23.9,17.6,39.6,17.6c29.6,0,53.7-24.1,53.7-53.7V384l31.2-201.4c2.5-16.2,17.8-27.4,34.1-24.9
	C1121.6,160.3,1132.8,175.6,1130.2,191.9z M875.9,357.9c0-8,3.1-15.5,8.7-21.1c5.6-5.6,13.1-8.7,21.1-8.7c12.1,0,23,7.5,27.6,18.5
	c-0.4,2.7-0.7,5.5-0.7,8.3v150.7c0,3.9,0.4,7.7,1.3,11.4c-4.1,11.6-15.1,19.9-28.1,19.9c-16.5,0-29.8-13.4-29.8-29.8V357.9z
	 M1007.4,335.3c5.6,5.6,8.7,13.1,8.7,21.1v149.2c0,16.5-13.4,29.8-29.8,29.8c-12.6,0-23.4-7.9-27.7-18.9c0.5-3.1,0.9-6.2,0.9-9.4
	V356.4c0-3.6-0.3-7.1-1-10.5c4.3-11.5,15.3-19.4,27.9-19.4C994.3,326.5,1001.8,329.6,1007.4,335.3z"/>
<path class="st2" d="M958.4,345.9c0.7,3.4,1,6.9,1,10.5v150.7c0,3.2-0.3,6.4-0.9,9.4c4.4,11.1,15.1,18.9,27.7,18.9
	c16.5,0,29.8-13.4,29.8-29.8V356.4c0-8-3.1-15.5-8.7-21.1s-13.1-8.7-21.1-8.7C973.8,326.5,962.8,334.3,958.4,345.9z"/>
<path class="st2" d="M905.7,536.9c13,0,24-8.3,28.1-19.9c-0.8-3.7-1.3-7.5-1.3-11.4V354.9c0-2.8,0.3-5.6,0.7-8.3
	c-4.5-11-15.5-18.5-27.6-18.5c-8,0-15.5,3.1-21.1,8.7c-5.6,5.6-8.7,13.1-8.7,21.1v149.2C875.9,523.5,889.3,536.9,905.7,536.9z"/>
<path class="st2" d="M1105.3,157.8c-16.3-2.5-31.6,8.6-34.1,24.9L1040,384v121.6c0,29.6-24.1,53.7-53.7,53.7
	c-15.7,0-29.8-6.8-39.6-17.6c-9.9,11.6-24.6,19.1-41,19.1c-29.6,0-53.7-24.1-53.7-53.7V393.5c-1.3-11.4-19.2-173.7-19.2-173.6
	c-1.9-16.3-16.8-28.1-33.1-26.2c-16.3,1.9-28.1,16.8-26.2,33.1c0,0,39.1,343.7,39.1,343.7c0.1,1,0.3,2.1,0.6,3.2l0.2,0.8l0.1,0.8
	c3.2,39.4,17.9,76.9,41.3,105.5l2.7,3.3l0,4.2l1.7,287.8h216.7l-22.4-293.5l-0.3-3.7l1.9-3.2c2.4-4.2,7.7-10.2,16.1-19.8
	c6.5-7.4,17.3-19.7,18.9-23.4l0.3-0.7l0.4-0.7c25.6-44.2,27.2-88.5,4.2-124.9l-0.8-1.2l-0.5-1.4c-2.1-6.3-4.5-12.6-7.2-18.7
	l-1.5-3.2l0.5-3.5c0,0,44.5-286.1,44.5-286.1C1132.8,175.6,1121.6,160.3,1105.3,157.8z"/>
<path class="st2" d="M974.4,405.7l-0.2-0.2l-0.2-0.2c-13.8-12.4-35.2-11.2-47.6,2.6c-12.4,13.8-11.2,35.2,2.6,47.6l100,89.2
	l51.5-51.4L974.4,405.7z"/>
<path class="st1" d="M926.4,408.1c12.4-13.8,33.7-15,47.6-2.6l0.2,0.2l0.2,0.2l106.2,87.7l18,14.9l15.2-18.4L989.6,387.3l0.4,0.3
	c-11.5-10.3-26.2-15.4-41.6-14.6c-15.3,0.9-29.5,7.6-39.7,19.1c-21.2,23.7-19.1,60.1,4.5,81.3c0,0,43.6,38.9,75.5,67.3
	c-54.5,11.1-95,51.3-95,99.2h20.9c0-42.3,41.6-77.1,94.6-81c7.5,6.7,12.4,11,12.4,11l15.9-17.8l-8.2-7.3l-100-89.2
	C915.2,443.2,914,421.9,926.4,408.1z"/>
</svg>
